X: 324
T:Je n'ose plus
N: Derived from Jos2719-Je_nose_plus.krn
C: Josquin des Prez
%%abc-version 2.0
%%abcx-abcm2ps-target-version 5.9.1 (29 Sep 2008)
%%abc-creator hum2abc beta
%%abcx-conversion-date 2019/02/12 16:15:54
%%abc-edited-by Jesse Rodin
%%abc-edited-by Jesse Rodin; Victoria Chang 2011/05/30
%%abcx-initial-encoding-date 2011/05/30/
%%humdrum-veritas 1733359894
%%humdrum-veritas-data 3443510531
%%linebreak <none>
%%barnumbers 0
L: 1/4
M: 2/1
Q: 1/2=120
V: 1 clef=treble
V: 2 clef=treble-8
V: 3 clef=bass
K: C
[V:1] z8 | 
[V:2] G4c4- | 
[V:3] z8 | 
[V:1] z8 | 
[V:2] c4d4 | 
[V:3] z4G,4 | 
[V:1] G4c4- | 
[V:2] e8 | 
[V:3] E,4C,4 | 
[V:1] c4d4 | 
[V:2] f8 | 
[V:3] F,6E,D, | 
[V:1] e8 | 
[V:2] e4c4 | 
[V:3] C,8 | 
[V:1] f8 | 
[V:2] d8 | 
[V:3] z4_B,4 | 
[V:1] e4d4- | 
[V:2] c4B4 | 
[V:3] C4G,4 | 
[V:1] d2c2c4- | 
[V:2] c8 | 
[V:3] A,8 | 
[V:1] c4B4 | 
[V:2] d8 | 
[V:3] G,8 | 
[V:1] c8- | 
[V:2] c8 | 
[V:3] C,8- | 
[V:1] c8 | 
[V:2] z8 | 
[V:3] C,8 | 
[V:1] z8 | 
[V:2] g8 | 
[V:3] C8 | 
[V:1] z8 | 
[V:2] a4a4 | 
[V:3] F4F4 | 
[V:1] g8 | 
[V:2] g6fe | 
[V:3] E4C4 | 
[V:1] a4a4 | 
[V:2] f4f4 | 
[V:3] z4D4 | 
[V:1] g6fe | 
[V:2] e8 | 
[V:3] E4C4 | 
[V:1] f4f4 | 
[V:2] z4d4 | 
[V:3] D4B,4 | 
[V:1] e8 | 
[V:2] e4g4 | 
[V:3] C8 | 
[V:1] z4d4 | 
[V:2] f6ed | 
[V:3] D4B,4 | 
[V:1] e4g4 | 
[V:2] c8 | 
[V:3] C6B,2 | 
[V:1] f2e4dc | 
[V:2] c4c4 | 
[V:3] A,8 | 
[V:1] !fermata!B8 ||  
[V:2] !fermata!g8 ||  
[V:3] !fermata!G,8 ||  
[V:1] z8 | 
[V:2] g8 | 
[V:3] G,6F,E, | 
[V:1] z8 | 
[V:2] f4e4- | 
[V:3] D,4E,4 | 
[V:1] g8 | 
[V:2] e4c4 | 
[V:3] C,8 | 
[V:1] f4e4- | 
[V:2] d4e4 | 
[V:3] z4C4- | 
[V:1] e4c4 | 
[V:2] c8 | 
[V:3] C4A,4 | 
[V:1] d4e4 | 
[V:2] z4c4 | 
[V:3] B,4C4- | 
[V:1] c6BA | 
[V:2] e4f4 | 
[V:3] C2B,2A,4 | 
[V:1] B4c4- | 
[V:2] g4a4- | 
[V:3] G,4F,4- | 
[V:1] c4B4 | 
[V:2] a4g4- | 
[V:3] F,4G,4 | 
[V:1] A8 | 
[V:2] g4^f4 | 
[V:3] D,8 | 
[V:1] G8 | 
[V:2] g8- | 
[V:3] G,4z4 | 
[V:1] z4g4- | 
[V:2] g8 | 
[V:3] G,6F,2 | 
[V:1] g4f4 | 
[V:2] z8 | 
[V:3] E,4D,4 | 
[V:1] e6dc | 
[V:2] z4g4 | 
[V:3] C,8 | 
[V:1] B4d4- | 
[V:2] g4f4 | 
[V:3] G,4B,4 | 
[V:1] d2c2c4- | 
[V:2] e4c4 | 
[V:3] C4A,4 | 
[V:1] c4B4 | 
[V:2] d8 | 
[V:3] G,8 | 
[V:1] c4g4- | 
[V:2] c6BA | 
[V:3] C,6D,2 | 
[V:1] g4f4 | 
[V:2] G4A2B2 | 
[V:3] E,4D,4 | 
[V:1] e6dc | 
[V:2] c4g4- | 
[V:3] C,8 | 
[V:1] B2c2d4- | 
[V:2] g4f4 | 
[V:3] G,4B,4 | 
[V:1] d2c2c4- | 
[V:2] e4c4 | 
[V:3] C4A,4 | 
[V:1] c2BAB4 | 
[V:2] d8 | 
[V:3] G,8 | 
[V:1] c8 |]  
[V:2] c8 |]  
[V:3] C,8 |]  



